src/components/LandingPage/images/SocialProofLogos/spacex.svg

<svg xmlns="http://www.w3.org/2000/svg" width="184" height="26" fill="none" viewBox="0 0 184 26"><g clip-path="url(#clip0)" opacity=".4"><path fill="#fff" d="M42.7681 8.50372H27.3632L26.7925 8.94147V22.9961H31.0569V17.7257L31.464 17.3516H42.7687C45.623 17.3516 46.9612 16.564 46.9612 14.5432V11.3161C46.9606 9.29189 45.623 8.50372 42.7681 8.50372ZM42.7681 13.6998C42.7681 14.6519 42.154 14.8496 40.8158 14.8496H31.5107L31.0564 14.3967V11.386L31.4634 11.004H40.8158C42.154 11.004 42.7681 11.1995 42.7681 12.1561V13.6998Z"/><path fill="#fff" d="M54.7371 11.1623L58.4067 16.6762L58.2034 17.2102H50.0881L48.0166 19.8238H60.0964L60.9336 20.3466L62.809 22.9995H67.6893L56.9921 8.32404"/><path fill="#fff" d="M103.264 20.1449V16.2441L103.703 15.8553H111.867V13.3714H98.9272V22.999H118.014V20.5269H103.722"/><path fill="#fff" d="M118.216 8.50372H98.9272V11.235H118.216V8.50372Z"/><path fill="#fff" d="M77.4137 11.0901H92.9532C92.7137 9.06366 91.4876 8.5014 88.3773 8.5014H77.2484C73.7387 8.5014 72.6191 9.20394 72.6191 11.9279V19.5701C72.6191 22.2969 73.7387 22.9994 77.2484 22.9994H88.3773C91.5332 22.9994 92.7417 22.3915 92.8241 20.2896H77.4137L76.9567 19.8484V11.3853"/><path fill="#fff" d="M16.4225 14.151H5.1178L4.7849 13.7753V11.2953L5.11615 11.0327H20.3557L20.5639 10.5105C20.0448 9.14089 18.7006 8.50201 16.2044 8.50201H5.61824C2.11076 8.50201 0.989571 9.20455 0.989571 11.9285V13.5307C0.989571 16.2581 2.11076 16.9595 5.61824 16.9595H16.8977L17.252 17.2784V19.871L16.963 20.2755H4.06088V20.2631H0.681396C0.681396 20.2631 0.294666 20.462 0.309498 20.555C0.597897 22.4603 1.86356 23 4.89367 23H16.4225C19.9294 23 21.0841 22.2975 21.0841 19.5707V17.5747C21.0841 14.8524 19.9294 14.151 16.4225 14.151Z"/><path fill="#fff" d="M130.349 8.44397H124.004L123.66 9.11608L130.707 14.3843C132.041 13.5916 133.494 12.7882 135.074 11.9955"/><path fill="#fff" d="M136.035 18.3679L142.229 23H148.652L148.918 22.3865L139.669 15.444C138.441 16.3685 137.227 17.3448 136.035 18.3679Z"/><path fill="#fff" d="M129.405 22.9894H123.664L123.179 22.2102C127.082 18.3448 144.541 1.77527 182.491 6.10352e-05C182.491 6.10352e-05 150.638 1.10203 129.405 22.9894Z"/></g><defs><clipPath id="clip0"><rect width="183" height="23" fill="#fff" transform="translate(0.309082)"/></clipPath></defs></svg>

<svg fill="none" viewBox="0 0 184 26"><g fill="#fff" clip-path="url(#clip0)" opacity=".4"><path d="M42.768 8.504H27.363l-.57.437v14.055h4.264v-5.27l.407-.374h11.305c2.854 0 4.192-.788 4.192-2.809v-3.227c0-2.024-1.338-2.812-4.193-2.812zm0 5.196c0 .952-.614 1.15-1.952 1.15H31.51l-.455-.453v-3.011l.407-.382h9.353c1.338 0 1.952.196 1.952 1.152V13.7zm11.97-2.538l3.669 5.514-.204.534h-8.115l-2.071 2.614h12.08l.837.523 1.875 2.652h4.88L56.992 8.325m46.272 11.82v-3.9l.439-.389h8.164v-2.484h-12.94V23h19.087v-2.472h-14.292m14.494-12.023H98.927v2.731h19.289V8.504zM77.414 11.09h15.54c-.24-2.026-1.466-2.589-4.577-2.589H77.248c-3.51 0-4.629.703-4.629 3.427v7.642c0 2.727 1.12 3.43 4.63 3.43h11.128c3.156 0 4.365-.608 4.447-2.71h-15.41l-.457-.442v-8.463m-60.534 2.766H5.117l-.333-.376v-2.48l.331-.262h15.24l.208-.522c-.52-1.37-1.863-2.009-4.36-2.009H5.618c-3.507 0-4.628.703-4.628 3.426v1.603c0 2.727 1.12 3.428 4.628 3.428h11.28l.354.32v2.592l-.289.405H4.061v-.013H.68s-.386.199-.372.292C.598 22.46 1.864 23 4.894 23h11.528c3.507 0 4.662-.703 4.662-3.43v-1.995c0-2.723-1.155-3.424-4.662-3.424zm113.926-5.707h-6.345l-.344.672 7.047 5.268a69.906 69.906 0 014.367-2.389m.961 6.373L142.229 23h6.423l.266-.613-9.249-6.943a72.98 72.98 0 00-3.634 2.924z"/><path d="M129.405 22.99h-5.741l-.485-.78c3.903-3.865 21.362-20.435 59.312-22.21 0 0-31.853 1.102-53.086 22.99z"/></g><defs><clipPath id="clip0"><path fill="#fff" d="M0 0h183v23H0z" transform="translate(.31)"/></clipPath></defs></svg>
